!!!!SEGMENT: pl-gd--ee-2628--005-013_stabile-annibale--il-primo-libro-de-madrigali-a-cinque-voci-vero-albergo-d-amor.krn
!!!cenid: 15xx:1058
!!!COM: Stabile, Annibale
!!!COM-rismID: pe30009662
!!!CDT: ~1535-1595/04
!!!CNT: Italian
!!!GTL: Il primo libro de madrigali a cinque voci
!!!OTL: Vero albergo d’amor
!!!OMV: 013
!!!PDT: 1586
!!!AGN:
!!!SMS-siglum: PL-GD
!!!SMS-shelfmark: Ee 2628
!!!SMS-variant:
!!!SMS-altvar:
!!!SMS-shelfwork: 005-013 G
!!!NIFC-rismSourceID: 990060531
!!!NIFC-islandoraID: pl-gd:66139
!!!URL-pdf-islandora: https://repozytorium.nifc.pl/islandora/object/pl-gd%3A66139/datastream/PDF/view
!!!URL-scan: https://polish.musicsources.pl/pl/lokalizacje/galeria/klocki-introligatorskie/673 @EN{Scan on Polish Music Sources Website} @PL{Skany w portalu Dziedzictwo Muzyki Polskiej w otwartym dostępie}
!!!ONB-nifc: UWAGA: Canto: s. 78-89, Tenore: s. 233-245, Basso: s. 390-401, Quinto: s. 712-723. Dla głosu Alto proszę skorzystać z https://pbc.gda.pl/dlibra/doccontent?id=79410, str. 25-48. Uwaga: utwory podzielone wg spisu treści dostępnych na końcu ksiąg – proszę sprawdzać sąsiednie tytuły. Głos Quinto proszę umieszczać wg ambitusu (może się różnić w zależności od utworu).
!!!AIN: 1 alto 1 bass 1 soprn 2 tenor
!!!key:
**kern	**text	**kern	**text	**kern	**text	**kern	**text	**kern	**text
*part5	*part5	*part4	*part4	*part3	*part3	*part2	*part2	*part1	*part1
*staff5	*staff5	*staff4	*staff4	*staff3	*staff3	*staff2	*staff2	*staff1	*staff1
*I"BASSO	*	*I"TENORE	*	*I"QVINTO	*	*I"ALTO	*	*I"CANTO	*
*I'B	*	*I'T	*	*I'V 5	*	*I'A	*	*I'S	*
*Ibass	*	*Itenor	*	*Itenor	*	*Ialto	*	*Isoprn	*
*ICvox	*	*ICvox	*	*ICvox	*	*ICvox	*	*ICvox	*
*clefF4	*	*clefC4	*	*clefC4	*	*clefC3	*	*clefC1	*
*k[]	*	*k[]	*	*k[]	*	*k[]	*	*k[]	*
*C:	*	*C:	*	*C:	*	*C:	*	*C:	*
*M2/1	*	*M2/1	*	*M2/1	*	*M2/1	*	*M2/1	*
*met(C)	*	*met(C)	*	*met(C)	*	*met(C)	*	*met(C)	*
=1-	=1-	=1-	=1-	=1-	=1-	=1-	=1-	=1-	=1-
!LO:TX:a:i:t=Prima parte.	!	!LO:TX:a:i:t=Prima parte.	!	!LO:TX:a:i:t=Prima parte.	!	!LO:TX:a:i:t=Prima parte.	!	!LO:TX:a:i:t=Prima parte.	!
00r	.	0r	.	0r	.	2d\	VE-	1r	.
.	.	.	.	.	.	4B/	ro a'-	.	.
.	.	.	.	.	.	4.c/	-ber-	.	.
.	.	.	.	.	.	.	.	2g/	VE-
.	.	.	.	.	.	8B/	-go	.	.
.	.	.	.	.	.	4e\	d'a-	.	.
.	.	.	.	.	.	4d\	-mor	4a\	ro a
.	.	.	.	.	.	4c/	oc-	4.cc\	ber-
=2-	=2-	=2-	=2-	=2-	=2-	=2-	=2-	=2-	=2-
.	.	1r	.	4r	.	4e\	-chi	.	.
.	.	.	.	.	.	.	.	8cc\	-go
.	.	.	.	4G/	VE-	2g\	lu-	4b\	d'a-
.	.	.	.	4c\	ro al-	.	.	2a\	-mor
.	.	.	.	4.d\	-ber-	4f#X\	-cen-	.	.
*	*	*	*	*	*	*	*	*	*ij
.	.	2G/	VE-	.	.	4g\	-ti	4b\	VE-
.	.	.	.	8d\	-go	.	.	.	.
.	.	.	.	4B\	d'a-	4d\	Ve-	2g/	ro a-
.	.	4E/	ro al-	2c\	-mor	4e\	ro al-	.	.
.	.	4.F/	-ber-	.	.	4.A/	-ber-	4.a\	-ber-
=3-	=3-	=3-	=3-	=3-	=3-	=3-	=3-	=3-	=3-
1r	.	.	.	4r	.	.	.	.	.
.	.	8E/	-go	.	.	8e\	-go	8g\	-go
.	.	4A/	d'a-	4c\	oc-	4e\	d'a-	4cc\	d'a-
.	.	1G	-mor	4d\	-chi	2g\	-mor	2b\	-mor
*	*	*	*	*	*	*	*	*	*Xij
.	.	.	.	4d\	lu-	.	.	.	.
!	!	!	!	!	!	!LO:SIC:v:t=custos g	!	!	!
!	!	!	!	!	!	!LO:LB:g=original	!	!	!
*	*	*	*	*	*	*	*ij	*	*
2C/	VE-	.	.	2e\	-cen-	2g\	Ve-	2cc\	oc-
*	*	*	*ij	*	*	*	*	*	*
4E\	ro al-	2c\	VE-	4e\	-ti	4g\	ro al-	2.cc\	-chi
4.F\	-ber-	.	.	4A/	Ve-	4.a\	-ber-	.	.
=4-	=4-	=4-	=4-	=4-	=4-	=4-	=4-	=4-	=4-
.	.	4F/	ro al-	4A/	ro al-	.	.	.	.
8F\	-go	.	.	.	.	8a\	-go	.	.
4E\	d'a-	4G/	-ber-	4.c\	-ber-	4g\	d'a-	4cc\	lu-
4D/	-mor	4A/	-go	.	.	2fny\	-mor	2dd\	-cen-
*	*	*	*	*	*	*	*Xij	*	*
.	.	.	.	8c\	-go	.	.	.	.
4D/	oc-	4F/	d'a-	4B\	d'a-	.	.	.	.
!	!	!	!	!LO:SIC:v:t=custos c	!	!	!	!	!
!	!	!	!	!LO:LB:g=original	!	!	!	!	!
4C/	-chi	4G/	-mor	4c\	-mor	4e\	oc-	4g/	-ti
*	*	*	*Xij	*	*	*	*	*	*ij
4AA/	lu-	4A/	oc-	4e\	oc-	2a\	-chi	4cc\	oc-
!	!	!	!	!	!	!	!	!LO:SIC:v:t=custos d	!
!	!	!	!	!	!	!	!	!LO:LB:g=original	!
4.BB/	-cen-	4D/	-chi	4d\	-chi	.	.	4dd\	-chi
.	.	4d\	lu-	4B\	lu-	4g\	lu-	4dd\	lu-
8C/	.	.	.	.	.	.	.	.	.
=5-	=5-	=5-	=5-	=5-	=5-	=5-	=5-	=5-	=5-
2D/	.	2d\	-cen-	2A/	-cen-	2f#X\	-cen-	2dd\	-cen-
4GG/	-ti	4d\	-ti	4G/	-ti	4g\	-ti	2b\	-ti
*	*	*	*ij	*	*	*	*ij	*	*Xij
4G\	oc-	4d\	oc-	4G/	oc-	4g\	oc-	.	.
!LO:SIC:v:t=custos E	!	!LO:SIC:v:t=custos e	!	!	!	!	!	!	!
!LO:LB:g=original	!	!LO:LB:g=original	!	!	!	!	!	!	!
4.E\	-chi	4e\	-chi	4B\	-chi	4g\	-chi	1r	.
.	.	4e\	lu-	4c\	lu-	4g\	lu-	.	.
8F\	lu-	.	.	.	.	.	.	.	.
2G\	-cen-	2d\	-cen-	2B\	-cen-	2g\	-cen-	.	.
=6-	=6-	=6-	=6-	=6-	=6-	=6-	=6-	=6-	=6-
1C	-ti	1c	-ti	4c\	-ti	2e\	-ti	1r	.
*	*	*	*Xij	*	*	*	*Xij	*	*
.	.	.	.	2G/	Del	.	.	.	.
.	.	.	.	.	.	2e\	Del	.	.
.	.	.	.	2c\	fra-	.	.	.	.
1r	.	2r	.	.	.	4e\	fra-	2g/	Del
.	.	.	.	4B\	-le	4d\	-le	.	.
.	.	4r	.	4A/	ci-	4e\	vi-	2.cc\	fra-
.	.	4c\	Del	4A/	-uir	4fny\	-uir	.	.
=7-	=7-	=7-	=7-	=7-	=7-	=7-	=7-	=7-	=7-
1r	.	4d\	fra-	2G/	mio	4g\	mio	.	.
.	.	4e\	-le	.	.	2g\	fir-	4b\	-le
.	.	4c\	vi-	2r	.	.	.	4a\	vi-
.	.	4d\	-uer	.	.	4f#X\	-mo	4a\	-uer
!	!	!	!	!	!	!LO:SIC:v:t=custos g	!	!	!
!	!	!	!	!	!	!LO:LB:g=original	!	!	!
1G	fer-	4G/	mio	2r	.	0g	ri-	1b	mio
.	.	4d\	fer-	.	.	.	.	.	.
.	.	4e\	-mo	4r	.	.	.	.	.
.	.	2d\	ri-	4d\	fer-	.	.	.	.
=8-	=8-	=8-	=8-	=8-	=8-	=8-	=8-	=8-	=8-
1G	-mo	.	.	4e\	-mo	.	.	1r	.
.	.	4.c\	-te-	4e\	ri-	.	.	.	.
.	.	.	.	2d\	-te-	.	.	.	.
.	.	8B\	.	.	.	.	.	.	.
.	.	4B\	.	.	.	.	.	.	.
!	!	!	!	!LO:SIC:v:t=custos c	!	!	!	!	!
!	!	!	!	!LO:LB:g=original	!	!	!	!	!
2r	.	2c\	-gno	1c	-gno	1e	-te-	4r	.
.	.	.	.	.	.	.	.	4g/	fer-
2C/	fer-	4r	.	.	.	.	.	4a\	-mo
.	.	4c\	fer-	.	.	.	.	4g/	ri-
=9-	=9-	=9-	=9-	=9-	=9-	=9-	=9-	=9-	=9-
2D/	-mo	4A/	-mo	2r	.	2d\	-gno	4f#X/	-te-
.	.	4B\	ri-	.	.	.	.	2g/	.
*	*	*	*	*	*ij	*	*	*	*
2D/	ri-	2A/	-te-	2d\	fer-	4r	.	.	.
.	.	.	.	.	.	4A/	fir-	4f#X/	.
!	!	!LO:SIC:v:t=custos G	!	!	!	!	!	!	!
!	!	!LO:LB:g=original	!	!	!	!	!	!	!
1GG	-te-	1G	-gno	4d\	-mo	4B/	-mo	0g	-gno
.	.	.	.	4c\	ri-	4c/	ri-	.	.
.	.	.	.	2B\	-te-	2d\	-te-	.	.
=10-	=10-	=10-	=10-	=10-	=10-	=10-	=10-	=10-	=10-
1C	-gno	2r	.	1c	-gno	2e\	-gno	.	.
*	*	*	*	*	*Xij	*	*	*	*
.	.	2G/	A	.	.	4r	.	.	.
.	.	.	.	.	.	4g\	A	.	.
1r	.	4A/	voi	1r	.	4fny\	voi	1r	.
.	.	4B\	ri-	.	.	4d\	ri-	.	.
.	.	4c\	-cor-	.	.	4e\	-cor-	.	.
.	.	8B\	.	.	.	8d\	.	.	.
.	.	8A\	.	.	.	8c\	.	.	.
=11-	=11-	=11-	=11-	=11-	=11-	=11-	=11-	=11-	=11-
0r	.	4B\	.	2r	.	4d\	.	2r	.
.	.	4c\	.	.	.	2g\	.	.	.
.	.	2A/	.	2c\	A	.	.	2cc\	A
.	.	.	.	.	.	4f#X\	.	.	.
.	.	2G/	-ro	4d\	voi	2g\	-ro	4b\	voi
.	.	.	.	4e\	ri-	.	.	4g/	ri-
!	!	!	!	!	!	!	!	!LO:SIC:v:t=custos a	!
!	!	!	!	!	!	!	!	!LO:LB:g=original	!
.	.	2r	.	4f\	-cor-	2r	.	8a\	-cor-
.	.	.	.	.	.	.	.	8g\	.
.	.	.	.	8e\	.	.	.	8a\	.
.	.	.	.	8d\	.	.	.	8b\	.
=12-	=12-	=12-	=12-	=12-	=12-	=12-	=12-	=12-	=12-
1r	.	2r	.	8e\	.	0r	.	4cc\	.
.	.	.	.	8f\	.	.	.	.	.
.	.	.	.	2g\	.	.	.	4b\	.
.	.	2.d\	(et)	.	.	.	.	2a\	.
.	.	.	.	4f#X\	.	.	.	.	.
2.G\	(et)	.	.	1g	-ro	.	.	1b	-ro
.	.	4d\	a	.	.	.	.	.	.
.	.	2e\	voi	.	.	.	.	.	.
4G\	a	.	.	.	.	.	.	.	.
=13-	=13-	=13-	=13-	=13-	=13-	=13-	=13-	=13-	=13-
2A\	voi	4c\	ſem-	0r	.	2r	.	1r	.
.	.	4A/	-pre	.	.	.	.	.	.
4F\	ſem-	4.d\	ve-	.	.	4r	.	.	.
4D/	-pre	.	.	.	.	2d\	(et)	.	.
.	.	8c\	.	.	.	.	.	.	.
!LO:SIC:v:t=custos G	!	!	!	!	!	!	!	!	!
!LO:LB:g=original	!	!	!	!	!	!	!	!	!
2G\	ve-	8B\	.	.	.	.	.	4r	.
.	.	8A\	.	.	.	.	.	.	.
.	.	4B\	.	.	.	4d\	a	2g/	(et)
2C/	-gno	2c\	-gno	.	.	2e\	voi	.	.
.	.	.	.	.	.	.	.	4g/	a
!	!	!	!	!	!	!LO:SIC:v:t=custos c	!	!	!
!	!	!	!	!	!	!LO:LB:g=original	!	!	!
=14-	=14-	=14-	=14-	=14-	=14-	=14-	=14-	=14-	=14-
4.F\	ſem-	00r	.	2r	.	4c/	ſem-	2a\	voi
.	.	.	.	.	.	4A/	-pre	.	.
8E\	-pre	.	.	.	.	.	.	.	.
4D/	ve-	.	.	4r	.	4.d\	ve-	4fny/	ſem-
4GG/	-gno	.	.	2G/	(et)	.	.	4d/	-pre
.	.	.	.	.	.	8c/	.	.	.
1r	.	.	.	.	.	8B/	.	4.g/	ve-
.	.	.	.	.	.	8A/	.	.	.
.	.	.	.	4G/	a	4B/	.	.	.
.	.	.	.	.	.	.	.	8f/	.
.	.	.	.	2A/	voi	2c/	-gno	8e/	.
.	.	.	.	.	.	.	.	8d/	.
.	.	.	.	.	.	.	.	4.e/	.
!	!	!	!	!LO:SIC:v:t=custos F	!	!	!	!	!
!	!	!	!	!LO:LB:g=original	!	!	!	!	!
=15-	=15-	=15-	=15-	=15-	=15-	=15-	=15-	=15-	=15-
4r	.	.	.	4F/	ſem-	4r	.	.	.
.	.	.	.	.	.	.	.	8d/	.
*	*	*	*	*	*	*	*ij	*	*
2G\	(et)	.	.	4G/	-pre	4d\	(et)	2d/	.
.	.	.	.	2E/	ve-	4e\	a	.	.
4G\	a	.	.	.	.	4g\	voi	4c#X/	.
2A\	voi	.	.	2D/	-gno	2.fny\	ſem-	4d/	-gno
.	.	.	.	.	.	.	.	2a\	ſem-
4F\	ſem-	.	.	4A\	ſem-	.	.	.	.
!	!	!	!	!	!	!	!	!LO:SIC:v:t=custos g	!
!	!	!	!	!	!	!	!	!LO:LB:g=original	!
4G\	-pre	.	.	4B\	-pre	4d\	-pre	4g/	-pre
!	!	!LO:SIC:v:t=custos G	!	!	!	!	!	!	!
!	!	!LO:LB:g=original	!	!	!	!	!	!	!
=16-	=16-	=16-	=16-	=16-	=16-	=16-	=16-	=16-	=16-
2C/	ve-	2r	.	2c\	ve-	2e\	ve-	2g/	ve-
2G\	-gno	4r	.	2B\	-gno	2d\	-gno	4g/	-gno
*	*	*	*	*	*	*	*Xij	*	*
.	.	4.G/	Per	.	.	.	.	4.b\	Per
1r	.	.	.	1r	.	4r	.	.	.
.	.	8G/	tro-	.	.	.	.	8b\	tro-
.	.	4G/	-uar	.	.	4.d\	Per	4b\	-uar
.	.	4B-X\	qual-	.	.	.	.	4dd\	qual-
.	.	.	.	.	.	8d\	tro-	.	.
.	.	4B-\	-che	.	.	4d\	-uar	4dd\	-che
=17-	=17-	=17-	=17-	=17-	=17-	=17-	=17-	=17-	=17-
2r	.	2A/	pa-	1r	.	4e\	qual-	2cc\	pa-
.	.	.	.	.	.	4f\	-che	.	.
4r	.	2G/	-ce	.	.	2g\	pa-	2b\	-ce
4.G\	Per	.	.	.	.	.	.	.	.
.	.	1r	.	4r	.	2g\	ce a	1r	.
8G\	tro-	.	.	.	.	.	.	.	.
4G\	-uar	.	.	4.d\	Per	.	.	.	.
!LO:SIC:v:t=custos B	!	!	!	!	!	!LO:SIC:v:t=custos f	!	!	!
!LO:LB:g=original	!	!	!	!	!	!LO:LB:g=original	!	!	!
4B\	qual-	.	.	.	.	4f\	miei	.	.
.	.	.	.	8d\	tro-	.	.	.	.
4B\	-che	.	.	4d\	-uar	2g\	tor-	.	.
=18-	=18-	=18-	=18-	=18-	=18-	=18-	=18-	=18-	=18-
2A\	pa-	0r	.	4e\	qual-	.	.	4r	.
.	.	.	.	4c\	-che	4f\	-men-	4.cc\	Per
2G\	ce a	.	.	4e\	pa-	4g\	-ti	.	.
.	.	.	.	.	.	.	.	8cc\	tro-
.	.	.	.	2d\	ce a	4G/	a	4b\	-uar
4E\	miei	.	.	.	.	4G/	miei	4g/	qual-
4F\	tor-	.	.	2c\	miei	4c/	tor-	4a\	-che
2D/	-men-	.	.	.	.	2d\	-men-	2f/	pa-
.	.	.	.	4B\	tor-	.	.	.	.
=19-	=19-	=19-	=19-	=19-	=19-	=19-	=19-	=19-	=19-
1C	-ti	2r	.	1c	-men-	0G	-ti	2e/	ce a
.	.	2e\	a	.	.	.	.	1cc	miei
1r	.	1g	miei	2d\	-ti	.	.	.	.
.	.	.	.	2d\	a	.	.	2.b\	tor-
!	!	!	!	!LO:SIC:v:t=custos e	!	!	!	!	!
!	!	!	!	!LO:LB:g=original	!	!	!	!	!
=20-	=20-	=20-	=20-	=20-	=20-	=20-	=20-	=20-	=20-
1E	a	1G	tor-	1.e	miei	1r	.	.	.
.	.	.	.	.	.	.	.	4a\	.
.	.	.	.	.	.	.	.	1g	.
2C#X/	miei	1A	-men-	.	.	2r	.	.	.
!	!	!	!	!	!	!	!	!LO:SIC:v:t=custos f#	!
!	!	!	!	!	!	!	!	!LO:LB:g=original	!
*	*	*	*	*	*	*	*ij	*	*
2D/	tor-	.	.	1d\	tor-	2A/	a	2f#X/	-men-
=21-	=21-	=21-	=21-	=21-	=21-	=21-	=21-	=21-	=21-
2.E\	-men-	1G	-ti	.	.	2e\	miei	0g	-ti
.	.	.	.	2.c\	-men-	2e\	tor-	.	.
8D\	.	.	.	.	.	.	.	.	.
8Cny/	.	.	.	.	.	.	.	.	.
1G	.	1r	.	.	.	1d	-men-	.	.
.	.	.	.	8B\	.	.	.	.	.
.	.	.	.	8A\	.	.	.	.	.
.	.	.	.	2B\	.	.	.	.	.
=22-	=22-	=22-	=22-	=22-	=22-	=22-	=22-	=22-	=22-
1C	-ti	2r	.	1c	-ti	1e	-ti	2r	.
*	*	*	*	*	*	*	*Xij	*	*
.	.	2G/	Ch'a	.	.	.	.	2g/	Ch'a
2r	.	4.A/	l'ap-	2r	.	1r	.	4.fny/	l'ap-
.	.	8G/	-pa-	.	.	.	.	8e/	-pa-
2D/	Ch'a	4A/	-rir	2d\	Ch'a	.	.	4f/	-rir
.	.	4Bny\	de	.	.	.	.	4f/	de
!	!	!LO:SIC:v:t=custos c	!	!	!	!	!	!	!
!	!	!LO:LB:g=original	!	!	!	!	!	!	!
=23-	=23-	=23-	=23-	=23-	=23-	=23-	=23-	=23-	=23-
4.E\	l'ap-	2c\	voſ-	4.G/	l'ap-	2r	.	4.e/	voſ-
8D/	-pa-	.	.	8F/	-pa-	.	.	8f/	-tri
!LO:SIC:v:t=custos E	!	!	!	!	!	!	!	!	!
!LO:LB:g=original	!	!	!	!	!	!	!	!	!
4E\	-rir	2c\	-tri	4G/	-rir	4r	.	4e/	rag-
4F\	de	.	.	4A/	de	4f\	Ch'a-	4cny/	gi ar-
2.G\	vo-	2.B\	rag-	4B\	voſ-	4.d\	-l'ap-	2g/	-den-
.	.	.	.	4G/	-tri	.	.	.	.
.	.	.	.	.	.	8c/	-pa-	.	.
.	.	.	.	4B\	rag-	4d\	-rir	4g/	-ti
8F\	.	8A/	.	4c\	-giar-	4e\	de	4g/	Ch'a
8E\	.	8G/	.	.	.	.	.	.	.
!	!	!	!	!	!	!LO:SIC:v:t=custos f	!	!	!
!	!	!	!	!	!	!LO:LB:g=original	!	!	!
=24-	=24-	=24-	=24-	=24-	=24-	=24-	=24-	=24-	=24-
4D/	.	1d	.	2F/	-den-	2f\	voſ-	4.a\	l'ap-
4E\	-ſtri	.	.	.	.	.	.	.	.
.	.	.	.	.	.	.	.	8g/	-pa-
4F\	rag-	.	.	2D/	-ti	2f\	-tri	4a\	-rir
4G\	-giar-	.	.	.	.	.	.	4b\	de
2A\	-den-	2c\	-giar-	1r	.	8e\	rag-	4.cc\	voſ-
.	.	.	.	.	.	8d\	.	.	.
.	.	.	.	.	.	8e\	.	.	.
.	.	.	.	.	.	8f\	.	8cc\	-tri
!	!	!	!	!	!	!	!	!LO:SIC:v:t=custos b	!
!	!	!	!	!	!	!	!	!LO:LB:g=original	!
2G\	-ti	1d\	-den-	.	.	4g\	.	4b\	rag-
.	.	.	.	.	.	4g\	-giar-	4b\	gi ar-
=25-	=25-	=25-	=25-	=25-	=25-	=25-	=25-	=25-	=25-
1r	.	.	.	2r	.	2f#X\	-den-	2a\	-den-
.	.	2G/	-ti	2d\	Man-	2g\	-ti	2g/	-ti
2G\	Man-	1r	.	4B\	ca ogn'-	1r	.	1r	.
.	.	.	.	4d\	-af-	.	.	.	.
4E\	ca ogn'-	.	.	2c\	-fan-	.	.	.	.
4F\	-af-	.	.	.	.	.	.	.	.
!	!	!	!	!LO:SIC:v:t=custos B	!	!	!	!	!
!	!	!	!	!LO:LB:g=original	!	!	!	!	!
=26-	=26-	=26-	=26-	=26-	=26-	=26-	=26-	=26-	=26-
2G\	-fan-	0r	.	4.B\	-no	2r	.	2dd\	Man-
.	.	.	.	8c\	.	.	.	.	.
2GG/	-no	.	.	4d\	.	2g\	Man-	4b\	ca o-
.	.	.	.	4B\	Man-	.	.	4dd\	gni af-
1r	.	.	.	2A/	ca ogn'-	4e\	ca o-	4cc\	-fan-
.	.	.	.	.	.	4f#X\	-gn'af-	8b\	.
.	.	.	.	.	.	.	.	8a\	.
.	.	.	.	2G/	-af-	2.g\	-fan-	4b\	.
.	.	.	.	.	.	.	.	8a\	.
.	.	.	.	.	.	.	.	8g\	.
=27-	=27-	=27-	=27-	=27-	=27-	=27-	=27-	=27-	=27-
1r	.	2r	.	2d\	-fan-	.	.	1a	.
.	.	.	.	.	.	8f#X\	.	.	.
.	.	.	.	.	.	8e\	.	.	.
.	.	2d\	Man-	4D/	-no	2f#X\	.	.	.
*	*	*	*	*	*ij	*	*	*	*
.	.	.	.	4D/	Man-	.	.	.	.
2r	.	4B\	ca ogn'-	4G/	ca ogn'-	1g	-no	2d/	-no
.	.	4c\	-af-	4A/	-af-	.	.	.	.
*	*ij	*	*	*	*	*	*	*	*ij
2G\	Man-	4.d\	-fan-	2B\	-fan-	.	.	2g/	Man-
.	.	8B\	.	.	.	.	.	.	.
!LO:SIC:v:t=custos E	!	!	!	!	!	!	!	!	!
!LO:LB:g=original	!	!	!	!	!	!	!	!	!
=28-	=28-	=28-	=28-	=28-	=28-	=28-	=28-	=28-	=28-
4E\	ca ogn'-	8c\	.	4G/	-no	1r	.	4g/	ca o-
*	*	*	*	*	*Xij	*	*	*	*
.	.	8B\	.	.	.	.	.	.	.
4G\	-af-	2e\	.	4B\	Man-	.	.	4g/	gni af-
2F\	-fan-	.	.	4.A/	ca ogn'-	.	.	1a	-fan-
.	.	4d\	.	.	.	.	.	.	.
.	.	.	.	8B\	-af-	.	.	.	.
1E	-no	1e	-no	2c\	-fan-	2r	.	.	.
*	*Xij	*	*	*	*	*	*	*	*
.	.	.	.	2B\	-no	1e\	o-	2g#X/	-no
*	*	*	*	*	*	*	*	*	*Xij
=29-	=29-	=29-	=29-	=29-	=29-	=29-	=29-	=29-	=29-
0r	.	1A	o-	0r	.	.	.	1r	.
.	.	.	.	.	.	2c#X/	-gni	.	.
.	.	2B\	-gni	.	.	2d\	gra-	2r	.
!	!	!	!	!	!	!LO:SIC:v:t=custos e	!	!	!
!	!	!	!	!	!	!LO:LB:g=original	!	!	!
.	.	2c#X\	gra-	.	.	4e\	-uo-	1a\	o-
.	.	.	.	.	.	4e\	-ſo	.	.
!	!	!LO:SIC:v:t=custos d	!	!	!	!	!	!	!
!	!	!LO:LB:g=original	!	!	!	!	!	!	!
=30-	=30-	=30-	=30-	=30-	=30-	=30-	=30-	=30-	=30-
1r	.	2.d\	-uo-	1r	.	2.fny\	ſde-	.	.
.	.	.	.	.	.	.	.	2b\	-gni
.	.	8cny\	.	.	.	4g\	.	.	.
.	.	8B\	.	.	.	.	.	.	.
2r	.	2A\	.	2r	.	1.a	.	1cc#X	gra-
2A\	o-	2e\	-ſo	1A\	o-	.	.	.	.
!	!	!	!	!	!	!	!	!LO:SIC:v:t=custos dd	!
!	!	!	!	!	!	!	!	!LO:LB:g=original	!
=31-	=31-	=31-	=31-	=31-	=31-	=31-	=31-	=31-	=31-
2F#X\	-gni	1d	ſde-	.	.	.	.	1.dd	-uo-
2G\	gra-	.	.	2B\	-gni	2g\	-gno	.	.
1C	-uo-	1e	-gno	1c	gra-	2r	.	.	.
.	.	.	.	.	.	2g\	o-	1ccny\	-ſo
!	!	!	!	!LO:SIC:v:t=custos d	!	!	!	!	!
!	!	!	!	!LO:LB:g=original	!	!	!	!	!
=32-	=32-	=32-	=32-	=32-	=32-	=32-	=32-	=32-	=32-
1G	-ſo	00r	.	1d	-uo-	1.g	-gni	.	.
.	.	.	.	.	.	.	.	2.b\	ſde-
*	*	*	*	*lig	*	*	*	*	*
2r	.	.	.	1G	-ſo	.	.	.	.
.	.	.	.	.	.	.	.	4a\	.
2E\	o-	.	.	.	.	2e\	gra-	1gny\	.
=33-	=33-	=33-	=33-	=33-	=33-	=33-	=33-	=33-	=33-
2C#X/	-gni	.	.	1A	.	2e\	-uo-	.	.
2D/	gra-	.	.	.	.	2d\	-ſo	2f#X/	.
*	*	*	*	*Xlig	*	*	*	*	*
*	*	*	*	*lig	*	*	*	*	*
2GG/	-uo-	.	.	1G	ſde-	1B	ſde-	1g	-gno
2GG/	-ſo	.	.	.	.	.	.	.	.
=34-	=34-	=34-	=34-	=34-	=34-	=34-	=34-	=34-	=34-
1D	ſde-	2r	.	1F	.	1A	-gno	0r	.
.	.	2d\	Et	.	.	.	.	.	.
*	*	*	*	*Xlig	*	*	*	*	*
1AA	-gno	4c\	di	1E	-gno	2r	.	.	.
.	.	4A/	tal	.	.	.	.	.	.
.	.	4.c\	gio-	.	.	2e\	Et	.	.
.	.	8c\	-ia	.	.	.	.	.	.
=35-	=35-	=35-	=35-	=35-	=35-	=35-	=35-	=35-	=35-
1r	.	4B\	poi	0r	.	4d\	di	2r	.
.	.	4G/	reſ-	.	.	4B/	tal	.	.
.	.	4B\	ta il	.	.	4.d\	gio-	2dd\	Et
.	.	4B\	cor	.	.	.	.	.	.
.	.	.	.	.	.	8d\	-ia	.	.
2r	.	2A/	pre-	.	.	4e\	poi	4cc\	di
.	.	.	.	.	.	4.cny/	re-	4a\	tal
2A\	Et	2A/	-gno	.	.	.	.	4.cc\	gio-
.	.	.	.	.	.	8d\	.	.	.
.	.	.	.	.	.	8e\	.	.	.
.	.	.	.	.	.	8f\	.	8cc\	-ia
!LO:SIC:v:t=custos G	!	!	!	!	!	!	!	!	!
!LO:LB:g=original	!	!	!	!	!	!	!	!	!
=36-	=36-	=36-	=36-	=36-	=36-	=36-	=36-	=36-	=36-
4G\	di	0r	.	2e\	Et	2g\	.	4b\	poi
4E\	tal	.	.	.	.	.	.	4g/	re-
!	!	!	!	!	!	!LO:SIC:v:t=custos g	!	!	!
!	!	!	!	!	!	!LO:LB:g=original	!	!	!
4.G\	gio-	.	.	4d\	di	4g\	ſta il	4b\	ſta il
.	.	.	.	4B\	tal	4d\	cor	4b\	cor
8G\	-ia	.	.	.	.	.	.	.	.
4Fny\	poi	.	.	4.d\	gio-	2f\	pre-	2a\	pre-
4D/	re-	.	.	.	.	.	.	.	.
.	.	.	.	8d\	-ia	.	.	.	.
4F\	ſta il	.	.	4c\	poi	4f\	-gno	2a\	-gno
4F\	cor	.	.	4A/	re-	4a\	Et	.	.
=37-	=37-	=37-	=37-	=37-	=37-	=37-	=37-	=37-	=37-
4E\	pre-	1r	.	4B\	ſta il	4g\	di	1r	.
8D/	.	.	.	4c\	cor	4e\	tal	.	.
8Cny/	.	.	.	.	.	.	.	.	.
2D/	.	.	.	2A/	pre-	4.f\	gio-	.	.
.	.	.	.	.	.	8f\	-ia	.	.
2AA/	-gno	2A/	Et	4A/	-gno	4e\	poi	2cc\	Et
.	.	.	.	4c\	Et	4f\	re-	.	.
2r	.	4G/	di	4d\	di	4g\	ſta il	4b\	di
.	.	4E/	tal	4e\	tal	4g\	cor	4g/	tal
!	!	!LO:SIC:v:t=custos G	!	!	!	!	!	!LO:SIC:v:t=custos b-	!
!	!	!LO:LB:g=original	!	!	!	!	!	!LO:LB:g=original	!
=38-	=38-	=38-	=38-	=38-	=38-	=38-	=38-	=38-	=38-
0r	.	4.G/	gio-	4d\	gio-	2g\	pre-	4.b-X\	gio-
.	.	.	.	4e\	-ia	.	.	.	.
.	.	8G/	-ia	.	.	.	.	8b-\	-ia
.	.	4F/	poi	4fny\	poi	4c/	-gno	4a\	poi
.	.	4D/	reſ-	4f\	re-	4d\	re-	4a\	re-
!	!	!	!	!LO:SIC:v:t=custos e	!	!	!	!	!
!	!	!	!	!LO:LB:g=original	!	!	!	!	!
.	.	4E/	ta il	4e\	ſta il	4B/	ſta il	4g/	ſta il
.	.	4F/	cor	4c\	cor	4A/	cor	2a\	cor
.	.	2G/	pre-	2B\	pre-	2d\	pre-	.	.
.	.	.	.	.	.	.	.	2g/	pre-
=39-	=39-	=39-	=39-	=39-	=39-	=39-	=39-	=39-	=39-
1r	.	1D	-gno	1A	-gno	1d	-gno	.	.
.	.	.	.	.	.	.	.	8f#X/	.
.	.	.	.	.	.	.	.	8e/	.
.	.	.	.	.	.	.	.	2f#X/	.
2C/	Che	1r	.	1r	.	2e\	Che	2g/	-gno
2C/	lo-	.	.	.	.	2e\	lo-	2cc\	Che
!	!	!	!	!	!	!LO:SIC:v:t=custos f	!	!	!
!	!	!	!	!	!	!LO:PB:g=original	!	!	!
=40-	=40-	=40-	=40-	=40-	=40-	=40-	=40-	=40-	=40-
4D/	co in	0r	.	2r	.	4f\	-c'in	2a\	lo-
2C/	me	.	.	.	.	2e\	me	.	.
.	.	.	.	2c\	Che	.	.	2g/	co in
4BB/	non	.	.	.	.	4d\	non	.	.
!LO:SIC:v:t=custos AA	!	!	!	!	!	!	!	!	!
!LO:LB:g=original	!	!	!	!	!	!	!	!	!
2AA/	han	.	.	2c\	lo-	4.e\	han	4a\	me
.	.	.	.	.	.	.	.	4a\	non
.	.	.	.	.	.	8f\	.	.	.
4GG/	pen-	.	.	4d\	co in	4g\	.	4d/	han
2AA/	-ſier	.	.	2c\	me	4e\	pen-	4a\	pen-
=41-	=41-	=41-	=41-	=41-	=41-	=41-	=41-	=41-	=41-
.	.	2r	.	.	.	4f\	-ſier	4a\	-ſier
4GG/	do-	.	.	4B\	non	4g\	do-	4dd\	do-
2D/	-len-	2d\	Che	2A/	han	2f#X\	-len-	2dd\	-len-
2GG/	-ti	2d\	lo-	2G/	pen-	1g	-ti	1bny	-ti
4G\	Che	4e\	co in	4.G/	-ſier	.	.	.	.
2G\	lo-	2d\	me	.	.	.	.	.	.
.	.	.	.	8A/	.	.	.	.	.
!	!	!	!	!	!	!	!	!LO:SIC:v:t=custos cc	!
!	!	!	!	!	!	!	!	!LO:LB:g=original	!
=42-	=42-	=42-	=42-	=42-	=42-	=42-	=42-	=42-	=42-
.	.	.	.	4B\	.	2r	.	0r	.
4A\	co in	4c\	non	4c\	do-	.	.	.	.
4G\	me	4B\	han	2d\	-len-	2g\	Che	.	.
4F\	non	4A/	pen-	.	.	.	.	.	.
2E\	han	4B\	-ſier	4e\	-ti	2g\	lo-	.	.
.	.	4e\	do-	4B\	non	.	.	.	.
4F\	pen-	4c\	-len-	4A/	han	4a\	co in	.	.
2G\	-ſier	8B\	.	4d\	pen-	2g\	me	.	.
.	.	8A\	.	.	.	.	.	.	.
!	!	!LO:SIC:v:t=custos B	!	!LO:SIC:v:t=custos d	!	!	!	!	!
!	!	!LO:LB:g=original	!	!LO:LB:g=original	!	!	!	!	!
=43-	=43-	=43-	=43-	=43-	=43-	=43-	=43-	=43-	=43-
.	.	8B\	.	4d\	-ſier	.	.	1r	.
.	.	8G/	.	.	.	.	.	.	.
4A\	do-	2c\	.	4c\	do-	4fny\	non	.	.
2G\	-len-	.	.	2d\	-len-	1g	han	.	.
.	.	4B\	.	.	.	.	.	.	.
1C	-ti	2c\	-ti	1e	-ti	.	.	2r	.
.	.	2c\	Che	.	.	2.e\	pen-	2cc\	Che
=44-	=44-	=44-	=44-	=44-	=44-	=44-	=44-	=44-	=44-
1r	.	2A/	lo-	1r	.	.	.	2cc\	lo-
.	.	.	.	.	.	4.f\	-ſier	.	.
.	.	4B-X\	co in	.	.	.	.	4dd\	co in
.	.	.	.	.	.	8g\	.	.	.
.	.	2A/	me	.	.	4a\	.	2cc\	me
1r	.	.	.	1r	.	4e\	do-	.	.
!	!	!	!	!	!	!LO:SIC:v:t=custos g	!	!	!
!	!	!	!	!	!	!LO:LB:g=original	!	!	!
.	.	4G/	non	.	.	4.g\	-len-	4b\	non
.	.	1.d\	han	.	.	.	.	2a\	ban
.	.	.	.	.	.	8f#X\	.	.	.
.	.	.	.	.	.	4f#\	.	.	.
=45-	=45-	=45-	=45-	=45-	=45-	=45-	=45-	=45-	=45-
*	*ij	*	*	*	*	*	*	*	*
2G\	Che	.	.	2r	.	2g\	-ti	4b\	pen-
.	.	.	.	.	.	.	.	4.b\	-ſier
!LO:SIC:v:t=custos G	!	!	!	!	!	!	!	!	!
!LO:LB:g=original	!	!	!	!	!	!	!	!	!
2G\	lo-	.	.	2G/	Che	2g\	Che	.	.
.	.	.	.	.	.	.	.	8cc\	.
.	.	.	.	.	.	.	.	8dd\	.
.	.	.	.	.	.	.	.	8b\	.
4A\	co in	2r	.	4c\	lo-	4e\	lo-	4cc\	.
2G\	me	.	.	4d\	co in	4g\	co in	4b\	do-
*	*	*	*ij	*	*	*	*	*	*
.	.	2D/	Che	4.A/	me	4d\	me	2a\	-len-
4F\	non	.	.	.	.	4d\	non	.	.
.	.	.	.	8B\	.	.	.	.	.
=46-	=46-	=46-	=46-	=46-	=46-	=46-	=46-	=46-	=46-
2E\	han	2G/	lo-	4c\	.	2e\	han	2g/	-ti
.	.	.	.	4B\	non	.	.	.	.
2F\	pen-	4F/	co in	4A/	han	4c/	pen-	2a\	non
.	.	2A/	me	4c\	pen-	2fny\	-ſier	.	.
4D/	-ſier	.	.	4d\	-ſier	.	.	2a\	han
4C/	do-	4A/	non	4e\	do-	4e\	do-	.	.
2BB-X/	-len-	2D/	han	2d\	-len-	2f\	-len-	2b-X\	pen-
*	*	*	*Xij	*	*	*	*	*	*
=47-	=47-	=47-	=47-	=47-	=47-	=47-	=47-	=47-	=47-
2C/	-ti	2E/	pen-	2c\	-ti.	2e\	-ti	1.g	-ſier
*	*Xij	*	*	*	*ij	*	*	*	*
2GG/	non	1G	-ſier	2B\	non	2d\	non	.	.
2.C/	han	.	.	2c\	han	2e\	han	.	.
.	.	2C/	do-	2c\	pen-	2e\	pen-	2a\	do-
4AA/	pen-	.	.	.	.	.	.	.	.
=48-	=48-	=48-	=48-	=48-	=48-	=48-	=48-	=48-	=48-
2BBny/	-ſier	0G	-len-	2d\	-ſier	2d\	-ſier	0g	-len-
2C/	do-	.	.	1c	do-	2e\	do-	.	.
1GG	-len-	.	.	.	.	1d	-len-	.	.
.	.	.	.	2B\	-len-	.	.	.	.
=49-	=49-	=49-	=49-	=49-	=49-	=49-	=49-	=49-	=49-
0Cl	-ti.	0Gl	-ti.	0cl	-ti.	0el	-ti.	0gl	-ti.
*	*	*	*	*	*Xij	*	*	*	*
=||	=||	=||	=||	=||	=||	=||	=||	=||	=||
*-	*-	*-	*-	*-	*-	*-	*-	*-	*-
!!!RDF**kern: l = terminal long
!!!system-decoration: [(s1,s2,s3,s4,s5)]
!!!ENC: Mateusz Solarz
!!!END: 2022-07-07
!!!ENC: Urszula Świątek
!!!END: 2022-07-29
!!!YEC: Copyright 2022 Narodowy Instytut Fryderyka Chopina (https://polishscores.org)
!!!YEM: Licence CC BY 4.0 (https://creativecommons.org/licenses/by/4.0)
